X: 905
T: Snowflake Reel
B: jims roots
M:4/4
L:1/8
R: reel
Q: 1/4=100
K:Dmaj
V:1 
(3ABc|"D"d2 fa fedf|edBA dB A2|"A" A,2 A,C E2AB|cABc BAFA|
"D"d2 fa fedf|edBA dB A2|"A"cdef gecA|"D"d2dd d2:|
|:"D"(3ABc|d2fd efdf|"A"a^g=gf edc=c|"Bb"_B2 _Bd =f_Bdf|
_bg=f_b gf (3ABc|"D"d2fd efdf|a^g=gf edcB|"A" cdef gecA |
"D"d2dd d2:|
% abcbook-tune_id 6298c287f4676b2b913b5be9


% abcbook-boost 0
% abcbook-tablature 
% abcbook-transpose 
% abcbook-lastupdated 1654178440592
% abcbook-soundfonts 
% abcbook-repeats 1


